X: 28637
T: Music Of The Mill, The
R: waltz
M: 3/4
K: Cmajor
G|G2c c>Bc|def g2c|A2A _B>AG|c>cc c2G|
G2c c>Bc|def g2c|A>AA _BAG|c3 c2e/f/|
|:g>gg g2f/e/|f>ff f2e|def g2e/d/|c>Bc d2e/f/:|

